packages/bezier-icons/icons/record.svg

<svg width="24" height="24" viewBox="0 0 24 24" fill="none" xmlns="http://www.w3.org/2000/svg">
<path d="M17 12C17 14.7614 14.7614 17 12 17C9.23858 17 7 14.7614 7 12C7 9.23858 9.23858 7 12 7C14.7614 7 17 9.23858 17 12Z" fill="#313234"/>
<path fill-rule="evenodd" clip-rule="evenodd" d="M16 5H8C6.34315 5 5 6.34315 5 8V16C5 17.6569 6.34315 19 8 19H16C17.6569 19 19 17.6569 19 16V8C19 6.34315 17.6569 5 16 5ZM8 3C5.23858 3 3 5.23858 3 8V16C3 18.7614 5.23858 21 8 21H16C18.7614 21 21 18.7614 21 16V8C21 5.23858 18.7614 3 16 3H8Z" fill="#313234"/>
</svg>

<svg xmlns="http://www.w3.org/2000/svg" width="24" height="24" fill="none" viewBox="0 0 24 24"><path fill="#313234" d="M17 12a5 5 0 1 1-10 0 5 5 0 0 1 10 0"/><path fill="#313234" fill-rule="evenodd" d="M16 5H8a3 3 0 0 0-3 3v8a3 3 0 0 0 3 3h8a3 3 0 0 0 3-3V8a3 3 0 0 0-3-3M8 3a5 5 0 0 0-5 5v8a5 5 0 0 0 5 5h8a5 5 0 0 0 5-5V8a5 5 0 0 0-5-5z" clip-rule="evenodd"/></svg>
